FINK
CUT[ES IST BESTIMMT IN GOTTES RATH]
REG[Europa, Mitteleuropa, Deutschland]
KEY[F0191  08  D 4/4]
MEL[-5_  -4_.-3-3_1_  -7_.-6-6_
    -6_  -2_-3_-4_-6_  -5_.-4-3_
    -5_  -2_.-4-3_
    -3_  1_-7_-6_.-5  -5_.-4#-4#_
    -1_  -7_-6_-5_.-4  -4#_.-3-3_
    -5_  -2_.-4-3_-5_  -2__.-4_  -3__. //] >>
FCT[Abschieds - Lied]
